X:8943
T:La Grand'B\^ete
R:Schottische
O:France
M:C
C:Gilles Chabenat
K:Dm
DEFG A2A2|GABGA4|1 FAGF EGFE|DEFGA2F2:|2\
c2=B2A2G2|EGFED4||\
|:A4d4|^cdecd4|ABcA cBAG|1FEFGA2F2:|2\
FGFED4||


